X:1
T: The Surgeon
C:Bruce Shawyer
R:Strathspey
Q:128
K:C
M:4/4
L:1/16
|:EG3 G3A G3A c3d|ec3 f3e e4d4|EG3 G3A G3A c3G|Ac3 c3e d8|
EG3 G3A G3A c3d|ec3 f3e e4d4|EG3 G3A G3A c3d|ec3 f3e d4c4|
ge3 e3d e3d c3G|ge3 e3d e4d4|ge3 e3d e3d c3G|Ac3 c3e d8|
ge3 e3d e3d c3G|ge3 e3d e4d4|ge3 e3d e3d c3G|Ac3 f3e d4c4:|
